packages/core/src/svgs/boa.svg

<svg width="24" height="24" viewBox="0 0 24 24" fill="none" xmlns="http://www.w3.org/2000/svg">
<g clip-path="url(#clip0_31_7251)">
<path d="M0 0H24V24H0V0Z" fill="#004F9E"/>
<path d="M18.8574 8.14279H5.14307V10.2856H6.00021L5.78592 17.1428H5.14307V17.9999H18.8574V17.1428H18.2145L18.0002 10.2856H18.8574V8.14279ZM11.9831 4.28564L6.85735 7.28564H17.1431L11.9831 4.28564Z" fill="white"/>
<path d="M10.7141 10.2856H8.57129L8.82415 17.1428H10.4313L10.7141 10.2856ZM15.4284 10.2856H13.2856L13.5384 17.1428H15.1456L15.4284 10.2856Z" fill="#004F9E"/>
</g>
<defs>
<clipPath id="clip0_31_7251">
<rect width="24" height="24" fill="white"/>
</clipPath>
</defs>
</svg>

<svg xmlns="http://www.w3.org/2000/svg" width="24" height="24" fill="none" viewBox="0 0 24 24"><g clip-path="url(#a)"><path fill="#004F9E" d="M0 0h24v24H0z"/><path fill="#fff" d="M18.857 8.143H5.143v2.143H6l-.214 6.857h-.643V18h13.714v-.857h-.642L18 10.286h.857zm-6.874-3.857-5.126 3h10.286z"/><path fill="#004F9E" d="M10.714 10.286H8.571l.253 6.857h1.607zm4.714 0h-2.142l.252 6.857h1.608z"/></g><defs><clipPath id="a"><path fill="#fff" d="M0 0h24v24H0z"/></clipPath></defs></svg>
